X:1
T:Michie Bainjo
M:2/4
L:1/8
K:A
 e/2 e e/2 dd| c/2 c c/2 Bd| c/2 c c/2 BB| A2 z2| AA GE| A A/2A/2 GB|\
 AA GE| A A/2A/2 GB| AA GE| A A/2A/2 GB| e/2 e e/2 dd| c/2 c c/2 Bd|\
 c/2 c c/2 Bd| A2 a2|
